webroot/css/img/new-desgin/bi_instagram.svg

<svg width="32" height="32" viewBox="0 0 32 32" fill="none" xmlns="http://www.w3.org/2000/svg">
<g id="bi:instagram">
<path id="Vector" d="M16 4C12.7435 4 12.334 4.015 11.0545 4.072C9.775 4.132 8.9035 4.333 8.14 4.63C7.33914 4.93123 6.61374 5.40374 6.0145 6.0145C5.40411 6.61404 4.93166 7.33936 4.63 8.14C4.333 8.902 4.1305 9.775 4.072 11.05C4.015 12.3325 4 12.7405 4 16.0015C4 19.2595 4.015 19.6675 4.072 20.947C4.132 22.225 4.333 23.0965 4.63 23.86C4.9375 24.649 5.347 25.318 6.0145 25.9855C6.6805 26.653 7.3495 27.064 8.1385 27.37C8.9035 27.667 9.7735 27.8695 11.0515 27.928C12.3325 27.985 12.7405 28 16 28C19.2595 28 19.666 27.985 20.947 27.928C22.2235 27.868 23.098 27.667 23.8615 27.37C24.6618 27.0686 25.3867 26.5961 25.9855 25.9855C26.653 25.318 27.0625 24.649 27.37 23.86C27.6655 23.0965 27.868 22.225 27.928 20.947C27.985 19.6675 28 19.2595 28 16C28 12.7405 27.985 12.3325 27.928 11.0515C27.868 9.775 27.6655 8.902 27.37 8.14C27.0684 7.33934 26.5959 6.61401 25.9855 6.0145C25.3864 5.40351 24.661 4.93097 23.86 4.63C23.095 4.333 22.222 4.1305 20.9455 4.072C19.6645 4.015 19.258 4 15.997 4H16.0015H16ZM14.9245 6.163H16.0015C19.2055 6.163 19.585 6.1735 20.8495 6.232C22.0195 6.2845 22.6555 6.481 23.0785 6.6445C23.638 6.862 24.0385 7.123 24.4585 7.543C24.8785 7.963 25.138 8.362 25.3555 8.923C25.5205 9.3445 25.7155 9.9805 25.768 11.1505C25.8265 12.415 25.8385 12.7945 25.8385 15.997C25.8385 19.1995 25.8265 19.5805 25.768 20.845C25.7155 22.015 25.519 22.6495 25.3555 23.0725C25.1631 23.5935 24.856 24.0647 24.457 24.451C24.037 24.871 23.638 25.1305 23.077 25.348C22.657 25.513 22.021 25.708 20.8495 25.762C19.585 25.819 19.2055 25.8325 16.0015 25.8325C12.7975 25.8325 12.4165 25.819 11.152 25.762C9.982 25.708 9.3475 25.513 8.9245 25.348C8.40325 25.1559 7.93169 24.8494 7.5445 24.451C7.14513 24.0641 6.83758 23.5925 6.6445 23.071C6.481 22.6495 6.2845 22.0135 6.232 20.8435C6.175 19.579 6.163 19.1995 6.163 15.994C6.163 12.79 6.175 12.412 6.232 11.1475C6.286 9.9775 6.481 9.3415 6.646 8.9185C6.8635 8.359 7.1245 7.9585 7.5445 7.5385C7.9645 7.1185 8.3635 6.859 8.9245 6.6415C9.3475 6.4765 9.982 6.2815 11.152 6.2275C12.259 6.1765 12.688 6.1615 14.9245 6.16V6.163ZM22.4065 8.155C22.2174 8.155 22.0301 8.19225 21.8554 8.26461C21.6807 8.33698 21.522 8.44305 21.3883 8.57677C21.2545 8.71048 21.1485 8.86923 21.0761 9.04394C21.0037 9.21864 20.9665 9.4059 20.9665 9.595C20.9665 9.7841 21.0037 9.97135 21.0761 10.1461C21.1485 10.3208 21.2545 10.4795 21.3883 10.6132C21.522 10.747 21.6807 10.853 21.8554 10.9254C22.0301 10.9978 22.2174 11.035 22.4065 11.035C22.7884 11.035 23.1547 10.8833 23.4247 10.6132C23.6948 10.3432 23.8465 9.97691 23.8465 9.595C23.8465 9.21309 23.6948 8.84682 23.4247 8.57677C23.1547 8.30671 22.7884 8.155 22.4065 8.155ZM16.0015 9.838C15.1841 9.82525 14.3723 9.97523 13.6135 10.2792C12.8546 10.5832 12.1638 11.0351 11.5812 11.6086C10.9987 12.1822 10.536 12.8659 10.2203 13.6199C9.90448 14.3739 9.74185 15.1833 9.74185 16.0007C9.74185 16.8182 9.90448 17.6276 10.2203 18.3816C10.536 19.1356 10.9987 19.8193 11.5812 20.3929C12.1638 20.9664 12.8546 21.4183 13.6135 21.7223C14.3723 22.0263 15.1841 22.1763 16.0015 22.1635C17.6193 22.1383 19.1623 21.4779 20.2975 20.3249C21.4326 19.1719 22.0689 17.6188 22.0689 16.0007C22.0689 14.3827 21.4326 12.8296 20.2975 11.6766C19.1623 10.5236 17.6193 9.86324 16.0015 9.838ZM16.0015 11.9995C17.0625 11.9995 18.08 12.421 18.8303 13.1712C19.5805 13.9215 20.002 14.939 20.002 16C20.002 17.061 19.5805 18.0785 18.8303 18.8288C18.08 19.579 17.0625 20.0005 16.0015 20.0005C14.9405 20.0005 13.923 19.579 13.1727 18.8288C12.4225 18.0785 12.001 17.061 12.001 16C12.001 14.939 12.4225 13.9215 13.1727 13.1712C13.923 12.421 14.9405 11.9995 16.0015 11.9995Z" fill="white"/>
</g>
</svg>

<svg width="32" height="32" fill="none" xmlns="http://www.w3.org/2000/svg"><path d="M16 4c-3.257 0-3.666.015-4.945.072-1.28.06-2.152.261-2.915.558-.8.301-1.526.774-2.126 1.385A5.89 5.89 0 0 0 4.63 8.14c-.297.762-.5 1.635-.558 2.91C4.015 12.332 4 12.74 4 16.001c0 3.258.015 3.666.072 4.946.06 1.278.261 2.15.558 2.913a5.894 5.894 0 0 0 1.385 2.125 5.856 5.856 0 0 0 2.124 1.385c.764.297 1.635.5 2.913.558 1.28.057 1.689.072 4.948.072 3.26 0 3.666-.015 4.947-.072 1.277-.06 2.151-.261 2.915-.558a5.875 5.875 0 0 0 2.123-1.385 5.894 5.894 0 0 0 1.385-2.125c.296-.764.498-1.635.558-2.913.057-1.28.072-1.688.072-4.947 0-3.26-.015-3.668-.072-4.948-.06-1.277-.262-2.15-.558-2.912a5.89 5.89 0 0 0-1.385-2.126A5.867 5.867 0 0 0 23.86 4.63c-.765-.297-1.638-.5-2.915-.558C19.665 4.015 19.258 4 15.997 4h.005H16Zm-1.075 2.163H16c3.204 0 3.584.01 4.848.069 1.17.053 1.806.249 2.23.412.559.218.96.479 1.38.899.42.42.679.819.896 1.38.165.421.36 1.057.413 2.227.058 1.265.07 1.644.07 4.847 0 3.203-.012 3.584-.07 4.848-.053 1.17-.249 1.805-.413 2.228-.192.52-.499.992-.898 1.378-.42.42-.819.68-1.38.897-.42.165-1.056.36-2.228.414-1.264.057-1.643.07-4.848.07-3.204 0-3.585-.013-4.849-.07-1.17-.054-1.804-.249-2.227-.414a3.716 3.716 0 0 1-1.38-.897 3.72 3.72 0 0 1-.9-1.38c-.164-.422-.36-1.058-.413-2.228-.057-1.264-.069-1.643-.069-4.849 0-3.204.012-3.582.069-4.846.054-1.17.249-1.806.414-2.23.218-.559.479-.96.899-1.38.42-.42.819-.679 1.38-.897.422-.165 1.057-.36 2.227-.413 1.107-.051 1.536-.066 3.773-.068v.003Zm7.482 1.992a1.44 1.44 0 1 0 0 2.88 1.44 1.44 0 0 0 0-2.88Zm-6.405 1.683a6.163 6.163 0 1 0-.193 12.325 6.163 6.163 0 0 0 .193-12.325Zm0 2.162a4 4 0 1 1 0 8.001 4 4 0 0 1 0-8.002Z" fill="#fff"/></svg>
